Hatter-kde-dark/actions/16/edit-image-face-show.svg

<?xml version="1.0" encoding="UTF-8"?>
<svg viewBox="0 0 16 16" xmlns="http://www.w3.org/2000/svg">
 <defs id="defs3051">
  <style id="current-color-scheme" type="text/css">.ColorScheme-Text {
        color:#dedede;
      }</style>
 </defs>
 <path class="ColorScheme-Text" d="m2 2v3h1v-2h2v-1h-3zm4 0v1h4v-1h-4zm5 0v1h2v2h1v-3h-3zm-3 2a1.5 1.5 0 0 0-1.5 1.5 1.5 1.5 0 0 0 1.5 1.5 1.5 1.5 0 0 0 1.5-1.5 1.5 1.5 0 0 0-1.5-1.5zm-6 2v4h1v-4h-1zm11 0v4h1v-4h-1zm-5 2a3 3 0 0 0-3 3v1h6v-1a3 3 0 0 0-3-3zm0 1a2 2 0 0 1 2 2h-4a2 2 0 0 1 2-2zm-6 2v3h3v-1h-2v-2h-1zm11 0v2h-2v1h3v-3h-1zm-7 2v1h4v-1h-4z" fill="currentColor"/>
</svg>

<svg xmlns="http://www.w3.org/2000/svg" viewBox="0 0 16 16">
  <defs id="defs3051">
    <style type="text/css" id="current-color-scheme">
      .ColorScheme-Text {
        color:#dedede;
      }
      </style>
  </defs>
 <path style="fill:currentColor;fill-opacity:1;stroke:none" 
     d="M 2 2 L 2 5 L 3 5 L 3 3 L 5 3 L 5 2 L 2 2 z M 6 2 L 6 3 L 10 3 L 10 2 L 6 2 z M 11 2 L 11 3 L 13 3 L 13 5 L 14 5 L 14 2 L 11 2 z M 8 4 A 1.5 1.5 0 0 0 6.5 5.5 A 1.5 1.5 0 0 0 8 7 A 1.5 1.5 0 0 0 9.5 5.5 A 1.5 1.5 0 0 0 8 4 z M 2 6 L 2 10 L 3 10 L 3 6 L 2 6 z M 13 6 L 13 10 L 14 10 L 14 6 L 13 6 z M 8 8 A 3 3 0 0 0 5 11 L 5 12 L 11 12 L 11 11 A 3 3 0 0 0 8 8 z M 8 9 A 2 2 0 0 1 10 11 L 6 11 A 2 2 0 0 1 8 9 z M 2 11 L 2 14 L 5 14 L 5 13 L 3 13 L 3 11 L 2 11 z M 13 11 L 13 13 L 11 13 L 11 14 L 14 14 L 14 11 L 13 11 z M 6 13 L 6 14 L 10 14 L 10 13 L 6 13 z "
     class="ColorScheme-Text"
     />
</svg>
